svg/fluentui-system-icons/ic_fluent_cloud_checkmark_20_filled.svg

<svg width="20" height="20" viewBox="0 0 20 20" fill="none" xmlns="http://www.w3.org/2000/svg">
<path d="M10 2C12.8166 2 14.4145 3.92329 14.6469 6.24599L14.7179 6.24599C16.5306 6.24599 18 7.75792 18 9.62299C18 9.71829 17.9962 9.81267 17.9886 9.90598C16.9349 8.5916 15.3157 7.75 13.5 7.75C10.4928 7.75 8.02481 10.0585 7.77144 13H5.28205C3.46942 13 2 11.4881 2 9.62299C2 7.75792 3.46942 6.24599 5.28207 6.24599L5.35314 6.24599C5.58687 3.90802 7.18335 2 10 2ZM18 13.5C18 15.9853 15.9853 18 13.5 18C11.0147 18 9 15.9853 9 13.5C9 11.0147 11.0147 9 13.5 9C15.9853 9 18 11.0147 18 13.5ZM15.8536 11.6464C15.6583 11.4512 15.3417 11.4512 15.1464 11.6464L12.5 14.2929L11.8536 13.6464C11.6583 13.4512 11.3417 13.4512 11.1464 13.6464C10.9512 13.8417 10.9512 14.1583 11.1464 14.3536L12.1464 15.3536C12.3417 15.5488 12.6583 15.5488 12.8536 15.3536L15.8536 12.3536C16.0488 12.1583 16.0488 11.8417 15.8536 11.6464Z" fill="#212121"/>
</svg>

<svg xmlns="http://www.w3.org/2000/svg" width="20" height="20"><path d="M10 2c2.817 0 4.415 1.923 4.647 4.246h.07C16.532 6.246 18 7.758 18 9.623c0 .095-.004.19-.011.283A5.75 5.75 0 0 0 7.772 13h-2.49C3.469 13 2 11.488 2 9.623c0-1.865 1.47-3.377 3.282-3.377h.071C5.587 3.908 7.183 2 10 2Zm8 11.5a4.5 4.5 0 1 1-9 0 4.5 4.5 0 0 1 9 0Zm-2.146-1.854a.5.5 0 0 0-.708 0L12.5 14.293l-.646-.647a.5.5 0 0 0-.708.708l1 1a.5.5 0 0 0 .708 0l3-3a.5.5 0 0 0 0-.708Z"/></svg>
